X:309
T:
R:polska
S:Efter klockaren O. Laugren i Alva.
O:Gotland, Alva
M:3/4
L:1/16
K:A
c2cA d2dB e2ec|f2fd gegb a3c|d2fd c2ec B4|Ee^de Bgfg f2e=d|
c2cA d2dB e2ec|f2fd gegb a3c|d2fd c2ec E2d2|cBAG B4 A4:|
|:dcBc Acec Acec|edcd Bded Bded|cABc defg agfe|e2fe dcBA AGFE|
dcBc Acec Acec|edcd Bded Bded|cABc defg a3f|edcB B4 A4:|

